source/img/icon_gift_tablet.svg

<svg width="80" height="83" viewBox="0 0 80 83" fill="none" xmlns="http://www.w3.org/2000/svg">
<path d="M65.657 35.8289H14.3907C12.5914 35.8289 11.1276 34.3657 11.1276 32.567V22.7945C11.1276 20.9957 12.5914 19.532 14.3907 19.532H65.6564C67.4551 19.532 68.9182 20.9957 68.9182 22.7945V32.5676C68.9189 34.3657 67.4557 35.8289 65.657 35.8289ZM14.3907 22.032C13.977 22.032 13.6276 22.3814 13.6276 22.7945V32.5676C13.6276 32.9876 13.9701 33.3295 14.3907 33.3295H65.6564C66.0764 33.3295 66.4182 32.9876 66.4182 32.5676V22.7945C66.4182 22.3807 66.0689 22.032 65.6564 22.032H14.3907Z" fill="white"/>
<path d="M58.5074 69.3076H21.5374C18.0737 69.3076 15.2556 66.4901 15.2556 63.0257V34.5789C15.2556 33.8889 15.8156 33.3289 16.5056 33.3289C17.1956 33.3289 17.7556 33.8889 17.7556 34.5789V63.0257C17.7556 65.1114 19.4524 66.8076 21.5374 66.8076H58.5074C60.5918 66.8076 62.2881 65.1114 62.2881 63.0257V34.5789C62.2881 33.8889 62.8481 33.3289 63.5381 33.3289C64.2281 33.3289 64.7881 33.8889 64.7881 34.5789V63.0257C64.7881 66.4901 61.9706 69.3076 58.5074 69.3076Z" fill="white"/>
<path d="M40.0231 69.3076C39.3331 69.3076 38.7731 68.7482 38.7731 68.0576V34.5789C38.7731 33.8889 39.3331 33.3289 40.0231 33.3289C40.7131 33.3289 41.2731 33.8889 41.2731 34.5789V68.057C41.2731 68.7482 40.7138 69.3076 40.0231 69.3076Z" fill="white"/>
<path d="M24.4218 22.0276C20.5093 19.9076 19.0493 15.0001 21.1674 11.0869C23.2843 7.17568 28.1912 5.71505 32.1056 7.8313C38.0687 11.0613 41.2887 20.0726 41.4224 20.4544L39.0643 21.2838C39.0343 21.1988 36.0262 12.7982 30.9162 10.0301C28.2131 8.5688 24.8268 9.57755 23.3662 12.2769C21.9043 14.9788 22.9118 18.3663 25.6137 19.8294L24.4218 22.0276Z" fill="white"/>
<path d="M55.6218 22.0275L54.4318 19.8287C55.7412 19.1194 56.6956 17.9437 57.1206 16.5181C57.545 15.0919 57.3881 13.5856 56.6787 12.2775C55.9712 10.9681 54.7962 10.0144 53.3706 9.58998C51.9443 9.16561 50.4393 9.32186 49.1306 10.03C44.0206 12.7975 41.0125 21.1981 40.9825 21.2831L38.6243 20.4537C38.7581 20.0719 41.9775 11.0606 47.9406 7.83123C49.8356 6.80498 52.0187 6.57873 54.0837 7.19373C56.1506 7.80811 57.8525 9.19123 58.8781 11.0869C59.905 12.9819 60.1318 15.1637 59.5168 17.2306C58.9012 19.2969 57.5181 21 55.6218 22.0275Z" fill="white"/>
<path d="M63.5381 52.5686H16.5056C15.8156 52.5686 15.2556 52.0086 15.2556 51.3186C15.2556 50.6286 15.8156 50.0686 16.5056 50.0686H63.5381C64.2281 50.0686 64.7881 50.6286 64.7881 51.3186C64.7881 52.0086 64.2287 52.5686 63.5381 52.5686Z" fill="white"/>
</svg>

<svg width="80" height="83" fill="none" xmlns="http://www.w3.org/2000/svg"><path d="M65.66 35.83H14.39a3.27 3.27 0 01-3.26-3.26v-9.78c0-1.8 1.46-3.26 3.26-3.26h51.27c1.8 0 3.26 1.47 3.26 3.26v9.78c0 1.8-1.46 3.26-3.26 3.26zm-51.27-13.8a.77.77 0 00-.76.76v9.78c0 .42.34.76.76.76h51.27c.42 0 .76-.34.76-.76v-9.78a.77.77 0 00-.76-.76H14.39z" fill="#fff"/><path d="M58.5 69.3H21.55a6.29 6.29 0 01-6.28-6.27V34.58a1.25 1.25 0 012.5 0v28.45c0 2.08 1.7 3.78 3.78 3.78H58.5c2.08 0 3.78-1.7 3.78-3.78V34.58a1.25 1.25 0 012.5 0v28.45a6.29 6.29 0 01-6.28 6.28z" fill="#fff"/><path d="M40.02 69.3c-.69 0-1.25-.55-1.25-1.24V34.58a1.25 1.25 0 012.5 0v33.48c0 .69-.56 1.25-1.25 1.25zM24.42 22.03a8.08 8.08 0 017.69-14.2c5.96 3.23 9.18 12.24 9.31 12.62l-2.36.83c-.03-.08-3.03-8.48-8.14-11.25a5.58 5.58 0 00-5.3 9.8l-1.2 2.2z" fill="#fff"/><path d="M55.62 22.03l-1.19-2.2a5.54 5.54 0 002.25-7.55 5.53 5.53 0 00-7.55-2.25c-5.1 2.77-8.12 11.17-8.15 11.25l-2.36-.83c.14-.38 3.36-9.39 9.32-12.62a8.02 8.02 0 016.14-.64c2.07.62 3.77 2 4.8 3.9a8.01 8.01 0 01.64 6.14 8.03 8.03 0 01-3.9 4.8zM63.54 52.57H16.5a1.25 1.25 0 010-2.5h47.03a1.25 1.25 0 010 2.5z" fill="#fff"/></svg>
